X:1
T:Close to Us All
T:Close to Us All
T:William M. Hays
T:William M. Hays, 1912
T:Public Domain Courtesy of the Cyber Hymnal™
C:William M. Hays
Z:Public Domain
Z:Courtesy of the Cyber Hymnal™
%%score 1 ( 2 3 )
L:1/8
Q:1/4=95
M:4/4
K:D
V:1 treble 
V:2 bass 
V:3 bass 
V:1
 [FA]2 [FA][FA] [DF]2 [EG][FA] | [GB]2 [FA]>[FA] [EA]4 | [Gc]3 [Ge] [Fd]3 [FA] | %3
w: 1.~When we are think- ing of|Hea- ven and home,|He is near, And|
w: 2.~When the poor soul by temp-|ta- tion is tried,|He is near, And|
w: 3.~When in the soul doubts and|fears do a- rise,|He is near, And|
 [FA]2 [FA][FA] [DF]2 [EG][FA] | [GB]2 [FA]>[FA] [EA]4 | [Ec]3 [Fd] [Ge]2 [Gc]2 | [Fd]6 z2 || %7
w: when we are walk- ing the|val- ley of gloom,|He is near us|then.|
w: when it is plunged ’neath the|on- com- ing tide,|He is near us|then.|
w: if in our sor- row the|soul to Him cries,|He is near us|then.|
"^Refrain" [EG]2 [EG][EG] [DF]2 [CE]2 | [DF]2 [EG]2 [FA]4 | [GB]2 [GB][Ad] [Ac]2 [^GB]2 | %10
w: |||
w: O what a friend He|is to me,|Wait- ing to hear the|
w: |||
 [EA]2 [E^G]2 [EA]4 | [FA]2 [FA][FA] [DF]2 [EG][FA] | [GB]2 [FA]>[FA] [EA]4 | %13
w: |||
w: faint- est call;|Ev- er un- chang- ing and|ev- er to be|
w: |||
 [Ec]2"^rall." [Ge][Ge] [Fd]4 |] %14
w: |
w: Close to us all.|
w: |
V:2
 [D,D]2 [D,D][D,D] [D,A,]2 [D,B,][D,C] | [D,D]2 [D,D]>[D,D] [A,,C]4 | [A,E]3 [A,C] [D,D]3 [D,D] | %3
 [D,D]2 [D,D][D,D] [D,A,]2 [D,B,][D,C] | [D,D]2 [D,D]>[D,D] [A,,C]4 | A,3 A, A,2 A,2 | %6
 [D,A,]6 z2 || A,2 A,A, A,2 A,2 | [D,A,]2 [D,A,]2 [D,D]4 | [G,D]2 [G,D][G,D] [E,E]2 [E,D]2 | %10
 [E,C]2 [E,B,]2 [A,C]4 | [D,D]2 [D,D][D,D] [D,A,]2 [D,B,][D,C] | [D,D]2 [D,D]>[D,D] [A,C]4 | %13
 A,2 A,A, [D,A,]4 |] %14
V:3
 x8 | x8 | x8 | x8 | x8 | A,3 A, A,2 A,2 | x8 || A,2 A,A, A,2 A,2 | x8 | x8 | x8 | x8 | x8 | %13
 A,2 A,A, x4 |] %14

